X: 30562
T: REVOLUTION IN IRELAND
C:
%R: reel
B: Elias Howe "The Musician's Companion" Part 3 1844 p.56 #2
S: http://imslp.org/wiki/The_Musician's_Companion_(Howe,_Elias)
S: https://archive.org/stream/firstthirdpartof03howe/#page/66/mode/1up
Z: 2015 John Chambers <jc:trillian.mit.edu>
M: 2/4
L: 1/16
K: F
% - - - - - - - - - - - - - - - - - - - - - - - - -
|:\
FGAB c2Ac | dfeg fcAc |\
FGAB c2Ac | dfeg f2f2 :|\
f2cA f2cA | fgaf gedc |
f2cA f2cA | fgaf g2g2 |\
affa geeg | fddf ecce |\
dBBd cAAc | BGFE F2F2 |]
% - - - - - - - - - - - - - - - - - - - - - - - - -
